contributed-vectors/bios_beep.svg

<svg xmlns="http://www.w3.org/2000/svg" xml:space="preserve" viewBox="0 0 192 192"><font horiz-adv-x="2048"><font-face font-family="Roboto-Medium" underline-position="-150" underline-thickness="100" units-per-em="2048"/><glyph d="M153 0v1456h477c161 0 286-33 377-99 91-67 136-166 136-298 0-64-18-122-54-173-37-51-87-90-152-117 93-15 165-56 216-121 50-65 75-142 75-230 0-137-45-240-134-311S881 0 724 0M396 662V194h328c84 0 149 19 194 58 45 38 68 93 68 166s-22 132-67 175-107 66-188 69h-13M396 843h260c75 0 135 18 179 54 43 35 65 86 65 151 0 72-23 126-69 161s-113 52-201 52H396z" horiz-adv-x="1304" unicode="B"/><glyph d="M416 0H173v1456h243z" horiz-adv-x="589" unicode="I"/><glyph d="M1297 597c0-178-56-325-167-442C1018 38 873-21 694-21c-174 0-316 59-425 176S105 419 105 597v262c0 177 55 325 164 442s250 176 425 176c178 0 323-59 435-176s168-265 168-442m-243 2c0 121-32 221-97 299s-152 117-263 117c-107 0-192-39-253-117-62-78-93-178-93-299V597c0-123 31-223 93-301 62-79 146-118 253-118 111 0 199 39 264 117 64 78 96 179 96 302z" horiz-adv-x="1402" unicode="O"/><glyph d="M920 374c0 61-21 110-64 149s-120 73-229 104c-157 43-277 100-362 171-85 70-128 162-128 275 0 117 47 214 140 290s213 114 360 114c157 0 283-42 378-126 94-85 139-189 136-313l-2-6H915c0 77-25 138-76 183s-119 68-204 68c-82 0-145-19-189-58-45-39-67-89-67-150 0-56 24-102 73-138 49-37 129-71 242-104 153-43 269-101 349-174 80-74 120-168 120-283 0-121-47-217-142-289S802-21 648-21C500-21 371 18 261 97S98 287 101 430l2 6h234c0-87 30-153 91-197 60-45 133-67 220-67 86 0 153 18 201 55 47 36 71 85 71 147z" horiz-adv-x="1259" unicode="S"/><glyph d="M1078 505c0-158-37-285-110-381C894 27 790-21 656-21c-68 0-127 14-177 42s-92 69-125 122L325 0H128v1560h243V959c33 46 73 81 120 106s101 37 163 37c135 0 240-53 314-158 73-105 110-245 110-418m-243 0c0 113-19 204-58 273S677 903 593 903c-54 0-99-12-135-36-37-24-66-57-87-100V313c21-43 49-77 86-100 37-24 83-36 138-36 84 0 145 30 183 89s57 138 57 239z" horiz-adv-x="1160" unicode="b"/><glyph d="M587-21c-158 0-281 50-370 150-89 99-134 228-134 387v40c0 159 45 290 134 393s203 154 344 153c145 0 255-45 330-134 75-90 112-210 112-360V477H334l-2-5c3-89 26-161 70-216s110-83 199-83c66 0 123 8 172 24 48 16 93 39 134 69l79-159c-41-36-96-66-164-91S676-21 587-21m-26 928c-63 0-114-23-152-68-38-46-62-106-71-179l2-5h423v19c0 69-16 126-48 169-33 43-84 64-154 64z" horiz-adv-x="1072" unicode="e"/><glyph d="M1076 505c0-157-37-284-111-381S788-21 656-21c-61 0-116 11-163 33s-88 54-122 97v-525H128v1498h205l24-136c35 51 77 89 126 116s105 40 170 40c133 0 237-53 312-158 74-106 111-245 111-418m-242 0c0 111-21 201-62 272-42 70-104 105-187 105-51 0-94-11-129-32-35-22-64-52-85-91V291c21-38 50-67 85-87 35-21 79-31 131-31 83 0 145 31 186 92s61 141 61 240z" horiz-adv-x="1160" unicode="p"/></font><path fill="#88bfff" d="M172 156.23c0 8.717-7.053 15.85-15.85 15.85H35.85c-8.718 0-15.85-7.133-15.85-15.85V35.77c0-8.717 7.053-15.85 15.85-15.85h120.3c8.718 0 15.85 7.133 15.85 15.85z" style="stroke-width:.792492;fill:#99bdfe;fill-opacity:1"/><text x="42.428" y="87.911" fill="#fff" font-family="'Roboto-Medium'" font-size="43.571" style="font-style:normal;font-variant:normal;font-weight:500;font-stretch:normal;font-family:Now;-inkscape-font-specification:&quot;Now Medium&quot;;stroke-width:.590647" transform="scale(.9995 1.0005)">BIOS</text><text x="52.13" y="127.001" fill="#fff" font-family="'Roboto-Medium'" font-size="33.686" style="font-style:normal;font-variant:normal;font-weight:500;font-stretch:normal;font-family:Now;-inkscape-font-specification:&quot;Now Medium&quot;;stroke-width:.561439" transform="scale(.9995 1.0005)">beep</text></svg>

<?xml version="1.0" encoding="UTF-8" standalone="no"?>
<!-- Generator: Adobe Illustrator 17.1.0, SVG Export Plug-In . SVG Version: 6.00 Build 0)  -->

<svg
   version="1.1"
   id="Слой_1"
   x="0px"
   y="0px"
   viewBox="0 0 192 192"
   enable-background="new 0 0 192 192"
   xml:space="preserve"
   sodipodi:docname="bios_beep.svg"
   inkscape:version="1.2 (dc2aedaf03, 2022-05-15)"
   inkscape:export-filename="biosbeep.png"
   inkscape:export-xdpi="96"
   inkscape:export-ydpi="96"
   xmlns:inkscape="http://www.inkscape.org/namespaces/inkscape"
   xmlns:sodipodi="http://sodipodi.sourceforge.net/DTD/sodipodi-0.dtd"
   xmlns="http://www.w3.org/2000/svg"
   xmlns:svg="http://www.w3.org/2000/svg"><defs
   id="defs31" /><sodipodi:namedview
   id="namedview29"
   pagecolor="#505050"
   bordercolor="#eeeeee"
   borderopacity="1"
   inkscape:showpageshadow="0"
   inkscape:pageopacity="0"
   inkscape:pagecheckerboard="0"
   inkscape:deskcolor="#505050"
   showgrid="false"
   inkscape:zoom="1.7383042"
   inkscape:cx="7.1909163"
   inkscape:cy="82.264082"
   inkscape:window-width="1680"
   inkscape:window-height="1022"
   inkscape:window-x="1920"
   inkscape:window-y="0"
   inkscape:window-maximized="1"
   inkscape:current-layer="Слой_1" />
<font
   horiz-adv-x="2048"
   id="font20">
<!-- Roboto is a trademark of Google. -->
<!-- Copyright: Copyright 2017 Adobe System Incorporated. All rights reserved. -->
<font-face
   font-family="Roboto-Medium"
   units-per-em="2048"
   underline-position="-150"
   underline-thickness="100"
   id="font-face2" />
<missing-glyph
   horiz-adv-x="510"
   id="missing-glyph4" />
<glyph
   unicode="B"
   horiz-adv-x="1304"
   d="M153,0l0,1456l477,0C791,1456 916,1423 1007,1357C1098,1290 1143,1191 1143,1059C1143,995 1125,937 1089,886C1052,835 1002,796 937,769C1030,754 1102,713 1153,648C1203,583 1228,506 1228,418C1228,281 1183,178 1094,107C1005,36 881,0 724,0M396,662l0,-468l328,0C808,194 873,213 918,252C963,290 986,345 986,418C986,491 964,550 919,593C874,636 812,659 731,662l-13,0M396,843l260,0C731,843 791,861 835,897C878,932 900,983 900,1048C900,1120 877,1174 831,1209C785,1244 718,1261 630,1261l-234,0z"
   id="glyph6" />
<glyph
   unicode="I"
   horiz-adv-x="589"
   d="M416,0l-243,0l0,1456l243,0z"
   id="glyph8" />
<glyph
   unicode="O"
   horiz-adv-x="1402"
   d="M1297,597C1297,419 1241,272 1130,155C1018,38 873,-21 694,-21C520,-21 378,38 269,155C160,272 105,419 105,597l0,262C105,1036 160,1184 269,1301C378,1418 519,1477 694,1477C872,1477 1017,1418 1129,1301C1241,1184 1297,1036 1297,859M1054,861C1054,982 1022,1082 957,1160C892,1238 805,1277 694,1277C587,1277 502,1238 441,1160C379,1082 348,982 348,861l0,-264C348,474 379,374 441,296C503,217 587,178 694,178C805,178 893,217 958,295C1022,373 1054,474 1054,597z"
   id="glyph10" />
<glyph
   unicode="S"
   horiz-adv-x="1259"
   d="M920,374C920,435 899,484 856,523C813,562 736,596 627,627C470,670 350,727 265,798C180,868 137,960 137,1073C137,1190 184,1287 277,1363C370,1439 490,1477 637,1477C794,1477 920,1435 1015,1351C1109,1266 1154,1162 1151,1038l-2,-6l-234,0C915,1109 890,1170 839,1215C788,1260 720,1283 635,1283C553,1283 490,1264 446,1225C401,1186 379,1136 379,1075C379,1019 403,973 452,937C501,900 581,866 694,833C847,790 963,732 1043,659C1123,585 1163,491 1163,376C1163,255 1116,159 1021,87C926,15 802,-21 648,-21C500,-21 371,18 261,97C151,176 98,287 101,430l2,6l234,0C337,349 367,283 428,239C488,194 561,172 648,172C734,172 801,190 849,227C896,263 920,312 920,374z"
   id="glyph12" />
<glyph
   unicode="b"
   horiz-adv-x="1160"
   d="M1078,505C1078,347 1041,220 968,124C894,27 790,-21 656,-21C588,-21 529,-7 479,21C429,49 387,90 354,143l-29,-143l-197,0l0,1560l243,0l0,-601C404,1005 444,1040 491,1065C538,1090 592,1102 654,1102C789,1102 894,1049 968,944C1041,839 1078,699 1078,526M835,526C835,639 816,730 777,799C738,868 677,903 593,903C539,903 494,891 458,867C421,843 392,810 371,767l0,-454C392,270 420,236 457,213C494,189 540,177 595,177C679,177 740,207 778,266C816,325 835,404 835,505z"
   id="glyph14" />
<glyph
   unicode="e"
   horiz-adv-x="1072"
   d="M587,-21C429,-21 306,29 217,129C128,228 83,357 83,516l0,40C83,715 128,846 217,949C306,1052 420,1103 561,1102C706,1102 816,1057 891,968C966,878 1003,758 1003,608l0,-131l-669,0l-2,-5C335,383 358,311 402,256C446,201 512,173 601,173C667,173 724,181 773,197C821,213 866,236 907,266l79,-159C945,71 890,41 822,16C754,-9 676,-21 587,-21M561,907C498,907 447,884 409,839C371,793 347,733 338,660l2,-5l423,0l0,19C763,743 747,800 715,843C682,886 631,907 561,907z"
   id="glyph16" />
<glyph
   unicode="p"
   horiz-adv-x="1160"
   d="M1076,505C1076,348 1039,221 965,124C891,27 788,-21 656,-21C595,-21 540,-10 493,12C446,34 405,66 371,109l0,-525l-243,0l0,1498l205,0l24,-136C392,997 434,1035 483,1062C532,1089 588,1102 653,1102C786,1102 890,1049 965,944C1039,838 1076,699 1076,526M834,526C834,637 813,727 772,798C730,868 668,903 585,903C534,903 491,892 456,871C421,849 392,819 371,780l0,-489C392,253 421,224 456,204C491,183 535,173 587,173C670,173 732,204 773,265C814,326 834,406 834,505z"
   id="glyph18" />
</font>

	<path
   fill="#88bfff"
   d="m 172,156.2294 c 0,8.71742 -7.05318,15.84985 -15.84984,15.84985 H 35.849844 C 27.13243,172.07925 20,164.94682 20,156.2294 V 35.770594 C 20,27.05318 27.05318,19.92075 35.849844,19.92075 H 156.15016 c 8.71741,0 15.84984,7.13243 15.84984,15.849844 z"
   id="path22"
   style="stroke-width:0.792492;fill:#99bdfe;fill-opacity:1" />

<text
   transform="scale(0.99949986,1.0005004)"
   fill="#ffffff"
   font-family="'Roboto-Medium'"
   font-size="43.5711px"
   id="text24"
   style="font-style:normal;font-variant:normal;font-weight:500;font-stretch:normal;font-family:Now;-inkscape-font-specification:'Now Medium';stroke-width:0.590647"
   x="42.428402"
   y="87.911186">BIOS</text><text
   transform="scale(0.99949986,1.0005004)"
   fill="#ffffff"
   font-family="'Roboto-Medium'"
   font-size="33.6863px"
   id="text26"
   style="font-style:normal;font-variant:normal;font-weight:500;font-stretch:normal;font-family:Now;-inkscape-font-specification:'Now Medium';stroke-width:0.561439"
   x="52.129536"
   y="127.00094">beep</text>
</svg>
